X: 27067
T: Miss Johnson
R: reel
M: 4/4
K: Gmajor
BcdB G2GF|GBAF G2GA|BcdB GBAG|FGAB c2dc|
BcdB G2GF|GBAF G2Bc|dBcA BGAG|FGAB c2dc|
Bcde dBGB|dg~g2 bg~g2|Bcde dcBc|Agaf gfed|
Bcde dBGB|defa g2fg|afdf ecAG|FGAB c2dc|

